X: 16042
T: Andrew and his Cutie Gun
%R: reel
B: James Oswald "The Caledonian Pocket Companion" v.1 b.6 p.4 #2
S: https://ia800501.us.archive.org/18/items/caledonianpocket01rugg/caledonianpocket01rugg_bw.pdf
Z: 2020 John Chambers <jc:trillian.mit.edu>
M: 2/4
L: 1/16
K: Am
|: "_Brisk"\
e4 (A2Bc) | (dcBA) B2G2 | e3dB2g2 | dB3 A4 :: G2g4a2 | g2e2g2d2 |\
e2a4b2 | (c'bag) e4 | d3eg3a | g2e2d2g2 | e3dB2g2 | dB3 A4 :|


